src/icons/svg/zhuisu.svg

<?xml version="1.0" standalone="no"?><!DOCTYPE svg PUBLIC "-//W3C//DTD SVG 1.1//EN" "http://www.w3.org/Graphics/SVG/1.1/DTD/svg11.dtd"><svg t="1597309929137" class="icon" viewBox="0 0 1024 1024" version="1.1" xmlns="http://www.w3.org/2000/svg" p-id="2686" xmlns:xlink="http://www.w3.org/1999/xlink" width="200" height="200"><defs><style type="text/css"></style></defs><path d="M904.14285752 299.85714248L550.57142832 74.85714248C524.85714248 62 492.71428584 62 467 74.85714248L119.85714248 299.85714248C81.28571416 319.14285752 62 357.71428584 62 402.71428584v482.14285664c0 38.57142832 38.57142832 77.14285752 83.57142832 77.14285752h732.85714335c45 0 83.57142832-38.57142832 83.57142833-77.14285752V402.71428584c0-45-19.28571416-83.57142832-57.85714248-102.85714336z m-147.85714336 282.85714336H704.85714248c-12.85714248 83.57142832-77.14285752 147.85714248-160.71428496 160.71428583v51.42857081c0 19.28571416-12.85714248 32.14285752-32.14285752 32.14285752s-32.14285752-12.85714248-32.14285752-32.14285752v-51.42857081C396.28571416 730.57142832 332 666.28571416 319.14285752 582.71428584h-45c-19.28571416 0-32.14285752-12.85714248-32.14285752-32.14285752s12.85714248-32.14285752 32.14285752-32.14285665H319.14285752c12.85714248-83.57142832 77.14285752-147.85714248 160.71428496-160.71428583v-45c0-12.85714248 6.42857168-19.28571416 12.85714336-25.71428584 6.42857168-6.42857168 19.28571416-6.42857168 32.14285664 0s12.85714248 12.85714248 12.85714336 25.71428584v51.42857168c83.57142832 12.85714248 147.85714248 77.14285752 160.71428584 160.71428496h51.4285708c19.28571416 0 32.14285752 12.85714248 32.14285752 32.14285752s-12.85714248 25.71428584-25.71428584 25.71428584zM602 460.57142832c-12.85714248-19.28571416-38.57142832-25.71428584-57.85714248-32.14285665-19.28571416-6.42857168-38.57142832-6.42857168-64.28571504 0-45 6.42857168-83.57142832 45-96.4285708 90.00000001v64.28571416c12.85714248 45 51.42857168 83.57142832 96.4285708 96.42857168 19.28571416 6.42857168 38.57142832 6.42857168 64.28571504 0 45-12.85714248 83.57142832-51.42857168 96.42857081-96.42857168 6.42857168-19.28571416 6.42857168-38.57142832-1e-8-64.28571416-6.42857168-19.28571416-19.28571416-38.57142832-38.57142832-57.85714336z" p-id="2687"></path></svg>

<svg class="icon" viewBox="0 0 1024 1024" xmlns="http://www.w3.org/2000/svg" width="200" height="200"><defs><style/></defs><path d="M904.143 299.857l-353.572-225C524.857 62 492.714 62 467 74.857l-347.143 225C81.286 319.143 62 357.714 62 402.714v482.143C62 923.43 100.571 962 145.571 962H878.43c45 0 83.571-38.571 83.571-77.143V402.714c0-45-19.286-83.571-57.857-102.857zM756.286 582.714h-51.429C692 666.286 627.714 730.571 544.143 743.43v51.428C544.143 814.143 531.286 827 512 827s-32.143-12.857-32.143-32.143V743.43C396.286 730.57 332 666.286 319.143 582.714h-45c-19.286 0-32.143-12.857-32.143-32.143s12.857-32.142 32.143-32.142h45C332 434.857 396.286 370.57 479.857 357.714v-45c0-12.857 6.429-19.285 12.857-25.714 6.429-6.429 19.286-6.429 32.143 0s12.857 12.857 12.857 25.714v51.429C621.286 377 685.571 441.286 698.43 524.857h51.428C769.143 524.857 782 537.714 782 557s-12.857 25.714-25.714 25.714zM602 460.571c-12.857-19.285-38.571-25.714-57.857-32.142-19.286-6.429-38.572-6.429-64.286 0-45 6.428-83.571 45-96.428 90v64.285c12.857 45 51.428 83.572 96.428 96.429 19.286 6.428 38.572 6.428 64.286 0 45-12.857 83.571-51.429 96.428-96.429 6.429-19.285 6.429-38.571 0-64.285-6.428-19.286-19.285-38.572-38.571-57.858z"/></svg>
